svg/u1f33d.svg

<svg viewBox="0 0 128 128" xmlns="http://www.w3.org/2000/svg">
  <path d="M28.66,105.23l-12.72-5.59c0,0-0.56,3.06-1.98,4.7c-1.6,1.84-4.34,2.83-4.34,2.83 s1.49,1.72,1.59,2.13c0.1,0.41,3.47,11.84,3.47,11.84s2.65,1.73,3.47,2.35s2.86,1.12,3.88-0.51c1.02-1.63,2.69-3.95,3.98-5.51 c1.49-1.81,3.05-2.98,3.05-2.98s5.83,2.47,13.89,2.47s17.14-3.47,27.45-11.22s21.97-19.26,25.03-21.71 c3.06-2.45,9.46-7.07,12.63-7.88s5.82-0.2,5.82,1.84s-1.33,3.27-0.31,3.98c1.02,0.71,4.39-2.04,4.39-2.35 c0-0.31-0.31-9.69-0.31-9.69l-8.89-5.77c0,0,2.43-3.07,4.5-5.66c1.62-2.03,4.18-4.69,4.18-4.69s0.1-3.57-0.51-3.27 S90.91,59.72,85.7,64.21S59.68,88.7,59.38,88.8S28.66,105.23,28.66,105.23z" fill="#307B32"/>
  <path d="M9.63,107.14c-1.3,0.61-5.17,1.95-4.96,4.7c0.2,2.75,2.9,4.57,5.12,6.05c2.21,1.48,4.9,3.27,4.9,3.27 s4.29-1.83,4.49-6.22c0.1-2.24-2.24-3.78-3.78-5.2s-3.51-3.69-3.51-3.69S11.01,106.5,9.63,107.14z" fill="#649726"/>
  <path d="M41.15,10.11c0.01,0.5,5.36-0.21,7.79,2.17c2.37,2.32,3.16,6.8-0.69,12.52S34.84,41.96,30.21,47.78 S14.92,66.21,13.05,78.91c-1.96,13.31,0.41,23.06,7.35,28.88s16.43,9.69,32.14,3.27c12.61-5.16,20-15.2,31.84-24.8 s19.29-14.39,26.33-14.69c7.04-0.31,7.14,5.1,6.22,7.04c-0.92,1.94-3.02,3.65-2.24,3.37c0.96-0.35,4.18-1.33,5.82-5.71 c1.63-4.39-0.51-9.69-5.2-11.73s-14.8-0.1-22.65,4.08c-7.86,4.18-16.12,10.31-17.25,11.22c-1.12,0.92-3.37,0.2-1.43-2.04 c1.94-2.24,12.25-11.84,23.67-16.84s19.8-7.14,19.8-7.14s3.47-3.37,4.49-4.29c1.02-0.92,2.55-1.63,2.35-2.65s-4.87-2.44-11.18,1.28 c-0.02,0.01-45.15,3.52-45.15,2.7c0-0.82,5.94-39.6,5.84-41.03c-0.1-1.43-0.65-2.46-1.5-1.92c-0.77,0.49-3.68,4.85-4.95,6.51 c-1.1,1.43-2.76,3.37-2.86,3.06S63.7,8.04,58.46,5.23C49.68,0.54,41.09,8.05,41.15,10.11z" fill="#649726"/>
  <path d="M46.72,71.15C43.46,75.33,19.07,83.8,19.07,83.8s1.26-8.07,5.71-17.04 c7.05-14.2,29.28-32.93,34.69-44.39c3.21-6.8,1.94-12.04-0.71-15S53.5,3.73,53.5,3.73s7.61-0.23,10.47,6.81s0.41,12.04,0.41,12.04 s3.37-3.98,5.61-7.24c2.24-3.27,3.67-6.33,3.67-6.33s1.53,3.47,0.51,8.67c-1.02,5.2-2.45,8.06-2.45,8.06L46.72,71.15z" fill="#307B32"/>
  <path d="M97.64,8.09c0,0,1.96-3.35,5.61-3.78c4.39-0.51,6.84,2.04,6.84,2.04s3.75-3.98,8.51-0.96 c4.39,2.79,1.92,7.73,1.92,7.73s3.66,0.87,3.57,5.53c-0.09,4.44-2.87,6.17-2.87,6.17l-19.08,25.92l-13.06,9.49l-7.14,4.59 l-13.67,9.49l-30.2,22.45c0,0-10.94,6.34-16.43,0.31c-3.06-3.37-3.27-7.35-3.06-10.1c0.3-4.07,1.12-6.05,2.96-8.16 c2.4-2.75,5.1-3.47,5.1-3.47s-0.98-4.18,1.82-8.38c2.78-4.16,7.06-3.76,7.06-3.76s-0.15-5.74,3.12-8.7 c3.33-3.02,5.15-1.61,5.35-2.12c0.2-0.51-0.49-4,3.49-7.54c2.86-2.54,6.71-1.85,6.71-1.85s-0.74-4.79,3.02-8.47 c3.95-3.87,7.69-1.63,7.69-1.63s-0.71-4.75,1.89-7.66c3.1-3.46,6.27-3.24,6.27-3.24s0.52-4.28,3.91-7.22 c2.57-2.24,6.92-1.87,7.22-2.28s1.67-4.28,5.75-5.61C94.27,5.46,97.64,8.09,97.64,8.09z" fill="#FFC01E"/>
  <path d="M113.7,27.45c0,0-0.53,4.48-2.06,6.47c-2.77,3.61-5.5,2.95-5.5,2.95s1.18,4.57-1.47,7.8 c-2.96,3.6-7.22,3.14-7.22,3.14s0.23,3.89-1.93,6.1c-3.24,3.32-5.84,2.66-5.84,2.66s0,2.14-1.68,4.19 c-0.37,0.45,10.83-6.49,14.39-8.19c3.56-1.71,10.74-4.41,10.74-4.41s4.05-2.49,5.05-5.76c1-3.27,0.36-6.05,0.64-7.04 s2.13-2.21,2.99-5.05s-0.18-5.84-0.18-5.84s-0.8,1.37-2.89,2.27C116.11,27.86,113.7,27.45,113.7,27.45z" fill="#F99628"/>
  <path d="M102.61,11.52c0,0-0.78,1.35-1.28,2.21c-0.5,0.85-1.07,1.99-1.07,1.99s-1.28-0.07-2.35-0.14 c-1.07-0.07-2.86,0.06-2.86,0.06s0.85-1.16,1.42-1.87c0.57-0.71,0.81-1.96,0.81-1.96s1,0.14,2.42,0.07 C101.11,11.8,102.61,11.52,102.61,11.52z" fill="#F99628"/>
  <path d="M31.12,84.29c0,0,0.21-2.63,0.28-3.77c0.07-1.14-0.21-3.13-0.21-3.13s4.84-0.57,6.83-3.98 c1.99-3.41,1.64-5.9,1.64-5.9s5.05,0.85,7.82-4.13s0.92-7.68,1.35-7.47s5.34-0.43,7.9-4.2c2.56-3.77,1.92-5.76,1.92-5.76 s4.27-0.28,6.33-3.41c2.06-3.13,1.56-6.26,1.56-6.26s4.3-0.16,6.57-2.72c2.28-2.56,2.65-6.71,2.65-6.71s2.35,0.51,6.12-1.62 s4.78-6.38,4.78-6.38s1.31,0.26,2.52,0.08c1.49-0.22,2.33-0.73,2.33-0.73s-0.78,0.73-1.33,2.84c-0.4,1.53-0.61,3.01-0.61,3.01 s-3.35-1.47-6.76,2.99C80.74,29.76,80.84,33,80.84,33s-3.26-0.58-6.19,2.99c-2.7,3.28-2.21,5.98-2.21,5.98s-3.77-0.36-6.47,3.2 c-2.95,3.88-2.06,7.82-2.06,7.82s-4.69-0.5-6.97,2.49c-2.28,2.99-1.92,6.97-1.92,6.97s-3.36-0.39-6.05,2.85 c-2.42,2.92-2.06,4.98-2.06,4.98s-4.27-0.07-6.97,3.49c-2.7,3.56-2.7,7.68-2.7,7.68s-1.92,0.14-3.41,0.85 C32.33,83.01,31.12,84.29,31.12,84.29z" fill="#F99628"/>
  <path d="M44.06,88.27c0,0,3.63,0.92,6.19-3.2c2.56-4.13,2.42-7.75,2.42-7.75s4.05,0.14,6.47-2.99 s2.55-7.16,2.55-7.16s3.76,0.15,6.27-3.65c2.04-3.08,2.06-6.19,2.06-6.19s3.06-0.57,5.48-3.49s1.92-6.97,1.92-6.97 s4.2,0.28,6.62-3.56s1.78-6.19,1.78-6.19s3.17,0.43,5.95-3.06c2.77-3.49,1.59-6.48,1.59-6.48s4.27,0.92,6.9-2.06 c2.63-2.99,2.89-6.59,3.13-6.54c1.4,0.26,5.1-1.38,5.1-1.38s-0.36,3.13-0.21,5.06c0.02,0.22-3.97-0.12-6.53,4.15 s-1.56,7.11-1.56,7.11s-3.73,0.35-5.51,3.55c-1.78,3.2-1.17,6.76-1.17,6.76s-3.38-1.21-6.12,2.42c-1.79,2.37-1.78,5.05-1.78,5.05 s-3.79-1.5-6.67,3.3c-2.1,3.5-1.16,7.44-1.16,7.44s-3.63-0.21-6.54,3.13c-2.92,3.34-2.98,8.73-2.98,8.73S61.35,80.16,55.16,85 c-5.06,3.95-17.6,12.14-17.11,11.76c2.04-1.61,3.1-2.64,4.31-4.35C43.57,90.71,44.06,88.27,44.06,88.27z" fill="#F99628"/>
  <path d="M91.44,9.24c-1.72-0.72-3.7-0.07-4.27,2.42c-0.39,1.7,0,3.13,1.49,3.77c1.67,0.71,2.97-0.7,3.56-1.92 C93.07,11.73,92.79,9.81,91.44,9.24z" fill="#FBE36A"/>
  <path d="M81.76,15.65c-1.2-0.95-3.63-0.36-4.84,2.28s-0.65,5.08,1.56,5.19 C81.41,23.26,84.47,17.78,81.76,15.65z" fill="#FBE36A"/>
  <path d="M71.31,25.11c-1.21-0.76-3.52-0.26-4.62,2.13c-0.85,1.85-0.47,3.92,0.92,4.55 c1.42,0.64,3.29-0.32,4.27-2.28C72.73,27.81,73.01,26.17,71.31,25.11z" fill="#FBE36A"/>
  <path d="M62.91,34.57c-1.8-1.23-4.2-0.28-5.69,2.06c-1.49,2.35-1.35,5.05,0.07,5.9s4.11,0.27,5.69-2.35 C64.41,37.84,64.48,35.63,62.91,34.57z" fill="#FBE36A"/>
  <path d="M52.17,45.88c-1.28-1.02-3.7-0.28-4.77,1.71c-1.07,1.99-0.47,3.45,0.64,4.27 c1.35,1,2.99,0.5,4.34-1.28S53.24,46.73,52.17,45.88z" fill="#FBE36A"/>
  <path d="M44.41,55.47c-1.08-0.98-3.49-0.71-4.77,1.21s-0.85,3.84,0.5,4.69s3.27-0.21,4.27-1.42 C45.4,58.74,45.9,56.82,44.41,55.47z" fill="#FBE36A"/>
  <path d="M33.68,66.92c-1.46-0.99-3.49,0.14-4.2,1.28c-0.71,1.14-0.78,2.77,0.64,3.84 c1.42,1.07,3.41,0.28,4.13-0.78C34.96,70.19,35.67,68.27,33.68,66.92z" fill="#FBE36A"/>
  <path d="M40.58,77.11c-0.9,1.72-0.71,3.34,0.43,4.34s3.13,0.43,4.34-1.49c0.62-0.99,0.85-3.13-0.64-4.13 C43.21,74.83,41.29,75.75,40.58,77.11z" fill="#FBE36A"/>
  <path d="M51.1,68.43c-1.12,1.45-1,3.2,0,4.13c1,0.92,3.49,0.36,4.41-1.14c0.78-1.28,0.64-2.77-0.5-3.77 C54.11,66.85,52.31,66.86,51.1,68.43z" fill="#FBE36A"/>
  <path d="M59.29,61.17c1.32,1.01,3.13,0.36,3.98-0.5s1.64-2.85,0.5-4.13c-1.14-1.28-3.27-0.85-4.48,0.43 C58.08,58.26,58.08,60.25,59.29,61.17z" fill="#FBE36A"/>
  <path d="M67.32,46.02c-1.14,1.8-1.64,4.84,0.36,5.9c2.13,1.14,4.41-1.21,5.41-2.85c1-1.64,1-3.98-0.64-4.91 C70.62,43.14,68.67,43.89,67.32,46.02z" fill="#FBE36A"/>
  <path d="M75.43,37.77c-1.27,2.01-1.92,4.55-0.28,5.83c1.4,1.1,3.84-0.14,5.19-2.06 c1.35-1.92,1.64-4.05,0.14-5.41C78.99,34.78,76.64,35.85,75.43,37.77z" fill="#FBE36A"/>
  <path d="M83.83,28.17c-1.2,1.39-1.56,3.41-0.28,4.55c1.28,1.14,2.99,1,4.34-0.71 c1.35-1.71,1.28-3.63-0.21-4.62C86.35,26.51,84.75,27.1,83.83,28.17z" fill="#FBE36A"/>
</svg>

<svg viewBox="0 0 128 128" xmlns="http://www.w3.org/2000/svg">
  <defs/>
  <path d="M28.66,105.23 L15.94,99.64 C15.94,99.64 15.38,102.7 13.96,104.34 C12.36,106.18 9.62,107.17 9.62,107.17 C9.62,107.17 11.11,108.89 11.21,109.3 C11.31,109.71 14.68,121.14 14.68,121.14 C14.68,121.14 17.33,122.87 18.15,123.49 C18.97,124.11 21.01,124.61 22.03,122.98 C23.05,121.35 24.72,119.03 26.01,117.47 C27.5,115.66 29.06,114.49 29.06,114.49 C29.06,114.49 34.89,116.96 42.95,116.96 C51.01,116.96 60.09,113.49 70.4,105.74 C80.71,97.99 92.37,86.48 95.43,84.03 C98.49,81.58 104.89,76.96 108.06,76.15 C111.23,75.34 113.88,75.95 113.88,77.99 C113.88,80.03 112.55,81.26 113.57,81.97 C114.59,82.68 117.96,79.93 117.96,79.62 C117.96,79.31 117.65,69.93 117.65,69.93 L108.76,64.16 C108.76,64.16 111.19,61.09 113.26,58.5 C114.88,56.47 117.44,53.81 117.44,53.81 C117.44,53.81 117.54,50.24 116.93,50.54 C116.32,50.84 90.91,59.72 85.7,64.21 C80.49,68.7 59.68,88.7 59.38,88.8 C59.08,88.9 28.66,105.23 28.66,105.23 Z" fill="#307B32"/>
  <path d="M9.63,107.14 C8.33,107.75 4.46,109.09 4.67,111.84 C4.87,114.59 7.57,116.41 9.79,117.89 C12,119.37 14.69,121.16 14.69,121.16 C14.69,121.16 18.98,119.33 19.18,114.94 C19.28,112.7 16.94,111.16 15.4,109.74 C13.86,108.32 11.89,106.05 11.89,106.05 C11.89,106.05 11.01,106.5 9.63,107.14 Z" fill="#649726"/>
  <path d="M41.15,10.11 C41.16,10.61 46.51,9.9 48.94,12.28 C51.31,14.6 52.1,19.08 48.25,24.8 C44.4,30.52 34.84,41.96 30.21,47.78 C25.58,53.6 14.92,66.21 13.05,78.91 C11.09,92.22 13.46,101.97 20.4,107.79 C27.34,113.61 36.83,117.48 52.54,111.06 C65.15,105.9 72.54,95.86 84.38,86.26 C96.22,76.66 103.67,71.87 110.71,71.57 C117.75,71.26 117.85,76.67 116.93,78.61 C116.01,80.55 113.91,82.26 114.69,81.98 C115.65,81.63 118.87,80.65 120.51,76.27 C122.14,71.88 120,66.58 115.31,64.54 C110.62,62.5 100.51,64.44 92.66,68.62 C84.8,72.8 76.54,78.93 75.41,79.84 C74.29,80.76 72.04,80.04 73.98,77.8 C75.92,75.56 86.23,65.96 97.65,60.96 C109.07,55.96 117.45,53.82 117.45,53.82 C117.45,53.82 120.92,50.45 121.94,49.53 C122.96,48.61 124.49,47.9 124.29,46.88 C124.09,45.86 119.42,44.44 113.11,48.16 C113.09,48.17 67.96,51.68 67.96,50.86 C67.96,50.04 73.9,11.26 73.8,9.83 C73.7,8.4 73.15,7.37 72.3,7.91 C71.53,8.4 68.62,12.76 67.35,14.42 C66.25,15.85 64.59,17.79 64.49,17.48 C64.39,17.17 63.7,8.04 58.46,5.23 C49.68,0.54 41.09,8.05 41.15,10.11 Z" fill="#649726"/>
  <path d="M46.72,71.15 C43.46,75.33 19.07,83.8 19.07,83.8 C19.07,83.8 20.33,75.73 24.78,66.76 C31.83,52.56 54.06,33.83 59.47,22.37 C62.68,15.57 61.41,10.33 58.76,7.37 C56.11,4.41 53.5,3.73 53.5,3.73 C53.5,3.73 61.11,3.5 63.97,10.54 C66.83,17.58 64.38,22.58 64.38,22.58 C64.38,22.58 67.75,18.6 69.99,15.34 C72.23,12.07 73.66,9.01 73.66,9.01 C73.66,9.01 75.19,12.48 74.17,17.68 C73.15,22.88 71.72,25.74 71.72,25.74 L46.72,71.15 Z" fill="#307B32"/>
  <path d="M97.64,8.09 C97.64,8.09 99.6,4.74 103.25,4.31 C107.64,3.8 110.09,6.35 110.09,6.35 C110.09,6.35 113.84,2.37 118.6,5.39 C122.99,8.18 120.52,13.12 120.52,13.12 C120.52,13.12 124.18,13.99 124.09,18.65 C124,23.09 121.22,24.82 121.22,24.82 L102.14,50.74 L89.08,60.23 L81.94,64.82 L68.27,74.31 L38.07,96.76 C38.07,96.76 27.13,103.1 21.64,97.07 C18.58,93.7 18.37,89.72 18.58,86.97 C18.88,82.9 19.7,80.92 21.54,78.81 C23.94,76.06 26.64,75.34 26.64,75.34 C26.64,75.34 25.66,71.16 28.46,66.96 C31.24,62.8 35.52,63.2 35.52,63.2 C35.52,63.2 35.37,57.46 38.64,54.5 C41.97,51.48 43.79,52.89 43.99,52.38 C44.19,51.87 43.5,48.38 47.48,44.84 C50.34,42.3 54.19,42.99 54.19,42.99 C54.19,42.99 53.45,38.2 57.21,34.52 C61.16,30.65 64.9,32.89 64.9,32.89 C64.9,32.89 64.19,28.14 66.79,25.23 C69.89,21.77 73.06,21.99 73.06,21.99 C73.06,21.99 73.58,17.71 76.97,14.77 C79.54,12.53 83.89,12.9 84.19,12.49 C84.49,12.08 85.86,8.21 89.94,6.88 C94.27,5.46 97.64,8.09 97.64,8.09 Z" fill="#FFC01E"/>
  <path d="M113.7,27.45 C113.7,27.45 113.17,31.93 111.64,33.92 C108.87,37.53 106.14,36.87 106.14,36.87 C106.14,36.87 107.32,41.44 104.67,44.67 C101.71,48.27 97.45,47.81 97.45,47.81 C97.45,47.81 97.68,51.7 95.52,53.91 C92.28,57.23 89.68,56.57 89.68,56.57 C89.68,56.57 89.68,58.71 88,60.76 C87.63,61.21 98.83,54.27 102.39,52.57 C105.95,50.86 113.13,48.16 113.13,48.16 C113.13,48.16 117.18,45.67 118.18,42.4 C119.18,39.13 118.54,36.35 118.82,35.36 C119.1,34.37 120.95,33.15 121.81,30.31 C122.67,27.47 121.63,24.47 121.63,24.47 C121.63,24.47 120.83,25.84 118.74,26.74 C116.11,27.86 113.7,27.45 113.7,27.45 Z" fill="#F99628"/>
  <path d="M102.61,11.52 C102.61,11.52 101.83,12.87 101.33,13.73 C100.83,14.58 100.26,15.72 100.26,15.72 C100.26,15.72 98.98,15.65 97.91,15.58 C96.84,15.51 95.05,15.64 95.05,15.64 C95.05,15.64 95.9,14.48 96.47,13.77 C97.04,13.06 97.28,11.81 97.28,11.81 C97.28,11.81 98.28,11.95 99.7,11.88 C101.11,11.8 102.61,11.52 102.61,11.52 Z" fill="#F99628"/>
  <path d="M31.12,84.29 C31.12,84.29 31.33,81.66 31.4,80.52 C31.47,79.38 31.19,77.39 31.19,77.39 C31.19,77.39 36.03,76.82 38.02,73.41 C40.01,70 39.66,67.51 39.66,67.51 C39.66,67.51 44.71,68.36 47.48,63.38 C50.25,58.4 48.4,55.7 48.83,55.91 C49.26,56.12 54.17,55.48 56.73,51.71 C59.29,47.94 58.65,45.95 58.65,45.95 C58.65,45.95 62.92,45.67 64.98,42.54 C67.04,39.41 66.54,36.28 66.54,36.28 C66.54,36.28 70.84,36.12 73.11,33.56 C75.39,31 75.76,26.85 75.76,26.85 C75.76,26.85 78.11,27.36 81.88,25.23 C85.65,23.1 86.66,18.85 86.66,18.85 C86.66,18.85 87.97,19.11 89.18,18.93 C90.67,18.71 91.51,18.2 91.51,18.2 C91.51,18.2 90.73,18.93 90.18,21.04 C89.78,22.57 89.57,24.05 89.57,24.05 C89.57,24.05 86.22,22.58 82.81,27.04 C80.74,29.76 80.84,33 80.84,33 C80.84,33 77.58,32.42 74.65,35.99 C71.95,39.27 72.44,41.97 72.44,41.97 C72.44,41.97 68.67,41.61 65.97,45.17 C63.02,49.05 63.91,52.99 63.91,52.99 C63.91,52.99 59.22,52.49 56.94,55.48 C54.66,58.47 55.02,62.45 55.02,62.45 C55.02,62.45 51.66,62.06 48.97,65.3 C46.55,68.22 46.91,70.28 46.91,70.28 C46.91,70.28 42.64,70.21 39.94,73.77 C37.24,77.33 37.24,81.45 37.24,81.45 C37.24,81.45 35.32,81.59 33.83,82.3 C32.33,83.01 31.12,84.29 31.12,84.29 Z" fill="#F99628"/>
  <path d="M44.06,88.27 C44.06,88.27 47.69,89.19 50.25,85.07 C52.81,80.94 52.67,77.32 52.67,77.32 C52.67,77.32 56.72,77.46 59.14,74.33 C61.56,71.2 61.69,67.17 61.69,67.17 C61.69,67.17 65.45,67.32 67.96,63.52 C70,60.44 70.02,57.33 70.02,57.33 C70.02,57.33 73.08,56.76 75.5,53.84 C77.92,50.92 77.42,46.87 77.42,46.87 C77.42,46.87 81.62,47.15 84.04,43.31 C86.46,39.47 85.82,37.12 85.82,37.12 C85.82,37.12 88.99,37.55 91.77,34.06 C94.54,30.57 93.36,27.58 93.36,27.58 C93.36,27.58 97.63,28.5 100.26,25.52 C102.89,22.53 103.15,18.93 103.39,18.98 C104.79,19.24 108.49,17.6 108.49,17.6 C108.49,17.6 108.13,20.73 108.28,22.66 C108.3,22.88 104.31,22.54 101.75,26.81 C99.19,31.08 100.19,33.92 100.19,33.92 C100.19,33.92 96.46,34.27 94.68,37.47 C92.9,40.67 93.51,44.23 93.51,44.23 C93.51,44.23 90.13,43.02 87.39,46.65 C85.6,49.02 85.61,51.7 85.61,51.7 C85.61,51.7 81.82,50.2 78.94,55 C76.84,58.5 77.78,62.44 77.78,62.44 C77.78,62.44 74.15,62.23 71.24,65.57 C68.32,68.91 68.26,74.3 68.26,74.3 C68.26,74.3 61.35,80.16 55.16,85 C50.1,88.95 37.56,97.14 38.05,96.76 C40.09,95.15 41.15,94.12 42.36,92.41 C43.57,90.71 44.06,88.27 44.06,88.27 Z" fill="#F99628"/>
  <path d="M91.44,9.24 C89.72,8.52 87.74,9.17 87.17,11.66 C86.78,13.36 87.17,14.79 88.66,15.43 C90.33,16.14 91.63,14.73 92.22,13.51 C93.07,11.73 92.79,9.81 91.44,9.24 Z" fill="#FBE36A"/>
  <path d="M81.76,15.65 C80.56,14.7 78.13,15.29 76.92,17.93 C75.71,20.57 76.27,23.01 78.48,23.12 C81.41,23.26 84.47,17.78 81.76,15.65 Z" fill="#FBE36A"/>
  <path d="M71.31,25.11 C70.1,24.35 67.79,24.85 66.69,27.24 C65.84,29.09 66.22,31.16 67.61,31.79 C69.03,32.43 70.9,31.47 71.88,29.51 C72.73,27.81 73.01,26.17 71.31,25.11 Z" fill="#FBE36A"/>
  <path d="M62.91,34.57 C61.11,33.34 58.71,34.29 57.22,36.63 C55.73,38.98 55.87,41.68 57.29,42.53 C58.71,43.38 61.4,42.8 62.98,40.18 C64.41,37.84 64.48,35.63 62.91,34.57 Z" fill="#FBE36A"/>
  <path d="M52.17,45.88 C50.89,44.86 48.47,45.6 47.4,47.59 C46.33,49.58 46.93,51.04 48.04,51.86 C49.39,52.86 51.03,52.36 52.38,50.58 C53.73,48.8 53.24,46.73 52.17,45.88 Z" fill="#FBE36A"/>
  <path d="M44.41,55.47 C43.33,54.49 40.92,54.76 39.64,56.68 C38.36,58.6 38.79,60.52 40.14,61.37 C41.49,62.22 43.41,61.16 44.41,59.95 C45.4,58.74 45.9,56.82 44.41,55.47 Z" fill="#FBE36A"/>
  <path d="M33.68,66.92 C32.22,65.93 30.19,67.06 29.48,68.2 C28.77,69.34 28.7,70.97 30.12,72.04 C31.54,73.11 33.53,72.32 34.25,71.26 C34.96,70.19 35.67,68.27 33.68,66.92 Z" fill="#FBE36A"/>
  <path d="M40.58,77.11 C39.68,78.83 39.87,80.45 41.01,81.45 C42.15,82.45 44.14,81.88 45.35,79.96 C45.97,78.97 46.2,76.83 44.71,75.83 C43.21,74.83 41.29,75.75 40.58,77.11 Z" fill="#FBE36A"/>
  <path d="M51.1,68.43 C49.98,69.88 50.1,71.63 51.1,72.56 C52.1,73.48 54.59,72.92 55.51,71.42 C56.29,70.14 56.15,68.65 55.01,67.65 C54.11,66.85 52.31,66.86 51.1,68.43 Z" fill="#FBE36A"/>
  <path d="M59.29,61.17 C60.61,62.18 62.42,61.53 63.27,60.67 C64.12,59.81 64.91,57.82 63.77,56.54 C62.63,55.26 60.5,55.69 59.29,56.97 C58.08,58.26 58.08,60.25 59.29,61.17 Z" fill="#FBE36A"/>
  <path d="M67.32,46.02 C66.18,47.82 65.68,50.86 67.68,51.92 C69.81,53.06 72.09,50.71 73.09,49.07 C74.09,47.43 74.09,45.09 72.45,44.16 C70.62,43.14 68.67,43.89 67.32,46.02 Z" fill="#FBE36A"/>
  <path d="M75.43,37.77 C74.16,39.78 73.51,42.32 75.15,43.6 C76.55,44.7 78.99,43.46 80.34,41.54 C81.69,39.62 81.98,37.49 80.48,36.13 C78.99,34.78 76.64,35.85 75.43,37.77 Z" fill="#FBE36A"/>
  <path d="M83.83,28.17 C82.63,29.56 82.27,31.58 83.55,32.72 C84.83,33.86 86.54,33.72 87.89,32.01 C89.24,30.3 89.17,28.38 87.68,27.39 C86.35,26.51 84.75,27.1 83.83,28.17 Z" fill="#FBE36A"/>
</svg>
